X: 587
T:Ard an Bhothair
T:Hill on The Road, The
T:High Part of the Road, The
R:jig
C:Sean Ryan
N:Posted to the woodenflute mailing list October 2002
D:Himself playing on Come West Along the Road ( Video )
Z:pat higgins,hn-jig-190
M:6/8
K:G
B3 cBc|ded cAG|F3 DFD| DFF FGA|
B3 cBc|d3 (4dBcd|fed cAF|AGF G2A:||
g3 def|gfg bag|f3 (4defg|afd cAF|
g3 d2e|g2a bag|fed cAF|1&gt; AGF GBd:|2 DEF G3:||
"henrik's:"
BAB cBc|ded cAG|F2D DED|FED FGA|
BAB cBc|dcA d2e|fed cAF|1 AGF G2A:|2 AGF GBd||
~g3 def|g2a bag|~f3 dfg|afd cAG|
~g3 def|g2a bag|fed cAF|1 AGF GBd:|2 AGF G2A||
"Variations:"
BDD cDD|ded cAG|~F3 DED|DGG FGA|
BAB cBc|dcA d2e|fed cAF|1 AGF G2A:|2 AGF GBd||
g2d def|g2b a2g|f2d dfg|afd cAG|
g2d def|g2a bag|fed cAF|1 AGF GBd:|2 AGF G2A||
<end>
<start>
